X: 38842
T: Sun And Wind
R: slip jig
M: 9/8
K: Dminor
|:~D3 DEF GFE|D2A d2e f2e|dcA DEF GFG|C2G GFG ~C3|
~D3 DEF GFE|D2A d2e f2g|afc gec fdB|1 AcA GFE D3:|2 AcA GFE D2g||
|:~a3 aga c'a/g/f|efe c'ef edc|~d3 edc dcA|cA/G/F FG/A/c d2e|
f3 fef c'a/g/f|efe gef edc|~d3 edc dcA|1 AcA GFE D2g:|2 AcA GFE D3||

